client/public/assets/icons/custom/custom62.svg

<?xml version="1.0"?><svg xmlns="http://www.w3.org/2000/svg" width="100" height="100" viewBox="0 0 100 100"><g fill="#fff"><path d="m77 70h-54c-1.6 0-3 1.3-3 3 0 1.6 1.3 3 3 3h54c1.6 0 3-1.3 3-3s-1.3-3-3-3z m-53-6h34v-4c0-1.1 0.9-2 2-2h10c1.1 0 2 0.9 2 2v4h4c1.1 0 2-0.9 2-2v-34c0-1.1-0.9-2-2-2h-52c-1.1 0-2 0.9-2 2v34c0 1.1 0.9 2 2 2z m9-26c0-1.1 0.9-2 2-2h29c1.1 0 2 0.9 2 2v2c0 1.1-0.9 2-2 2h-29c-1.1 0-2-0.9-2-2v-2z m0 12c0-1.1 0.9-2 2-2h19c1.1 0 2 0.9 2 2v2c0 1.1-0.9 2-2 2h-19c-1.1 0-2-0.9-2-2v-2z"></path></g></svg>

<?xml version="1.0" encoding="utf-8"?>
<!-- Generator: Adobe Illustrator 16.0.0, SVG Export Plug-In . SVG Version: 6.00 Build 0)  -->
<!DOCTYPE svg PUBLIC "-//W3C//DTD SVG 1.1//EN" "http://www.w3.org/Graphics/SVG/1.1/DTD/svg11.dtd">
<svg version="1.1" id="Layer_1" xmlns="http://www.w3.org/2000/svg" xmlns:xlink="http://www.w3.org/1999/xlink" x="0px" y="0px"
	 width="100px" height="100px" viewBox="0 0 100 100" enable-background="new 0 0 100 100" xml:space="preserve">
<g>
	<path fill="#FFFFFF" d="M77,70H23c-1.6,0-3,1.3-3,3l0,0c0,1.6,1.3,3,3,3h54c1.6,0,3-1.3,3-3l0,0C80,71.3,78.7,70,77,70z"/>
	<path fill="#FFFFFF" d="M24,64h34v-4c0-1.1,0.9-2,2-2h10c1.1,0,2,0.9,2,2v4h4c1.1,0,2-0.9,2-2V28c0-1.1-0.9-2-2-2H24
		c-1.1,0-2,0.9-2,2v34C22,63.1,22.9,64,24,64z M33,38c0-1.1,0.9-2,2-2h29c1.1,0,2,0.9,2,2v2c0,1.1-0.9,2-2,2H35c-1.1,0-2-0.9-2-2V38
		z M33,50c0-1.1,0.9-2,2-2h19c1.1,0,2,0.9,2,2v2c0,1.1-0.9,2-2,2H35c-1.1,0-2-0.9-2-2V50z"/>
</g>
</svg>
